X: 140044
T: ROARING JELLY
Q: "Irish Jig."
R: Jig.
%R: jig
B: James Kerr "Merry Melodies" v.1 p.40 s.0 #44
Z: 2016 John Chambers <jc:trillian.mit.edu>
M: 6/8
L: 1/8
K: D
uA, |\
DED uF2uA | vd2vf ecA | vG2vB uF2uA | E2F GFE |\
DED F2A | d2f ecA | Bgf edc | d3 d2 |]\
ua |\
va2vf uf2ud | A2a agf | g2e e2c | A2g gfe |
f2d g2e | a2f bag | fed edc | d3 d2 ua |\
agf fed | Adf afd | gfe ecA | Ace gfe |\
fed gfe | agf bag | fed edc | d3 d2 |]

%%sep 1 1 500
%%sep 1 1 500

